X:1
T:The Armies of God
T:The Armies of God
T:George Crawford Hugg
T:Charles Hutchinson Gabriel, 1895
T:Public Domain Courtesy of the Cyber Hymnal™
T:Public Domain Courtesy of the Cyber Hymnal™
C:George Crawford Hugg
Z:Public Domain
Z:Courtesy of the Cyber Hymnal™
%%score ( 1 2 ) ( 3 4 )
L:1/8
Q:1/4=108
M:4/4
K:Db
V:1 treble 
V:2 treble 
V:3 bass 
V:4 bass 
V:1
 A2 | A2 G2 C2 B2 | B3 A F2 d2 | [Ed]2 [Ec]2 [GB]2 [Gc]2 | [Fd]6 A2 | A2 G2 C2 B2 | B3 A F2 d2 | %7
w: 1.~O|Christ- ian, gird the|ar- mor on, And|press the fight with|sin! Go|forth a- gainst the|hosts of wrong, Go|
w: 2.~O|Christ- ian, gird the|ar- mor on, And|has- ten to the|field; A-|gainst the powers of|dark- ness go, De-|
w: 3.~O|Christ- ian, gird the|ar- mor on, The|world is watch- ing|thee; With|prayer and sup- pli-|ca- tion press A-|
 [Ed]2 [Ec]2 [GB]2 [Gc]2 | [Fd]6 [DF]2 | [DF]2 x6 | [FB]2 (=AB) (cA) x2 | [FB]4 [DF]2 [DF]2 | %12
w: forth our cause to|win; The|con-|flict wild- * ly *|rag- es, No|
w: ter- mined not to|yield! Clad|in|a full * sal- *|va- tion, The|
w: long to vic- to-|ry! Be|loy-|al to * His *|ser- vice, His|
 [DF]2 [FB]2 (=AB) (cA) | [FB]6 A2 | A2 G2 C2 B2 | B3 A F2 d2 | [Ed]2 [Ec]2 [GB]2 [Gc]2 | [Fd]6 || %18
w: lon- ger, then, * de- *|lay, But,|trust- ing in Je-|ho- vah’s might, Go!|watch, and fight, and|pray.|
w: Spir- it’s sword * in *|hand, From|vic- tory un- to|vic- tory go! It|is the Lord’s com-|mand.|
w: truth to all * pro- *|claim; God|loves a val- iant|war- ri- or, Then|go in Je- sus’|name.|
"^Refrain" A>A x6 | [Ge]4- [Ge][Gc][GB][Gc] | [Fd]2 [Fd]2 [FA]2 A>A | [Ge]4- [Ge][Gc][GB][Gc] | %22
w: Hal- le-|lu- * jah! they are|march- ing on, Hal- le-|lu- * jah, praise the|
w: ||||
w: ||||
 [Fd]6 [DF]2 | [CG]2 [DA]2 [DB]2 [Ac]2 | [Ad]2 [Ae]2 [Af]2 [Ge]2 | d4 c4 | [Fd]6 |] %27
w: Lord! The|ar- mies of the|liv- ing God Are|march- ing|on.|
w: |||||
w: |||||
V:2
 A2 | A2 G2 C2 B2 | B3 A F2 (FD) | x8 | x6 A2 | A2 G2 C2 B2 | B3 A F2 (FD) | x8 | x8 | x8 | %10
 x2 F2 F2 x2 | x8 | x4 F2 F2 | x6 A2 | A2 G2 C2 B2 | B3 A F2 (FD) | x8 | x6 || A>A x6 | x8 | %20
 x6 A>A | x8 | x8 | x8 | x8 | (F2 F2) (E2 G2) | x6 |] %27
V:3
 A,2 | A,2 G,2 C,2 B,2 | B,3 A, F,2 A,2 | A,2 A,2 [A,,A,]2 [A,,A,]2 | [D,A,]6 A,2 | %5
w: ~|~ ~ ~ ~|~ ~ ~ ~|~ ~ ~ ~|~ ~|
 A,2 G,2 C,2 B,2 | B,3 A, F,2 A,2 | A,2 A,2 [A,,A,]2 [A,,A,]2 | [D,A,]6 [D,A,]2 | %9
w: ~ ~ ~ ~|~ ~ ~ ~|~ ~ ~ ~|~ ~|
 [B,,B,]2 [B,,D]2 (CD) [F,E]2 | [B,,D]4 [B,,B,]2 [B,,B,]2 | [B,,B,]2 [B,,D]2 (CD) [F,E]2 | %12
w: ~ ~ ~ * ~|~ ~ ~|~ ~ ~ * ~|
 [B,,D]6 A,2 | A,2 G,2 C,2 B,2 | B,3 A, F,2 A,2 | A,2 A,2 [A,,A,]2 [A,,A,]2 | [D,A,]6 x2 | z2 x4 || %18
w: ~ ~|~ ~ ~ ~|~ ~ ~ ~|~ ~ ~ ~|~||
 z2 [A,C]>[A,C] [A,C]A,[A,,A,][A,,A,] | [D,A,]2 [D,A,]2 [D,D]2 z2 | z2 [A,C]>[A,C] (CA,) [A,,A,]2 | %21
w: Hal- le- lujah, ~ ~ ~|~ ~ ~|Hal- le- lu- * jah!,|
 [D,A,]2 [D,A,]2 [D,A,]2 [D,A,]2 | [E,A,]2 [F,D]2 [G,D]2 [E,E]2 | [F,D]2 [A,C]2 D2 [G,B,]2 | %24
w: praise the Lord! ~|~ ~ ~ ~|~ ~ ~ ~|
 A,2 A,2 [A,,A,]2 [A,,A,]2 | [D,A,]6 x2 | x6 |] %27
w: march- ing, march- ing|on.||
V:4
 A,2 | A,2 G,2 C,2 B,2 | B,3 A, F,2 (D,F,) | A,2 A,2 x4 | x6 A,2 | A,2 G,2 C,2 B,2 | %6
 B,3 A, F,2 (D,F,) | A,2 A,2 x4 | x8 | x4 F,2 x2 | x8 | x4 F,2 x2 | x6 A,2 | A,2 G,2 C,2 B,2 | %14
 B,3 A, F,2 (D,F,) | A,2 A,2 x4 | x8 | x6 || x5 A, x2 | x8 | x4 A,2 x2 | x8 | x8 | x4 D2 x2 | %24
 A,2 A,2 x4 | x8 | x6 |] %27

